dist/icons/svgs/arrow-right-to-arc-outline.svg

<svg xmlns="http://www.w3.org/2000/svg" width="24" height="24" fill="currentcolor" class="icon-arrow-right-to-arc-outline" viewBox="0 0 24 24">
  <path d="M20.125 12C20.125 7.54688 16.4531 3.875 12 3.875C11.4531 3.875 11.0625 3.48438 11.0625 2.9375C11.0625 2.42969 11.4531 2 12 2C17.5078 2 22 6.49219 22 12C22 17.5469 17.5078 22 12 22C11.4531 22 11.0625 21.6094 11.0625 21.0625C11.0625 20.5547 11.4531 20.125 12 20.125C16.4531 20.125 20.125 16.4922 20.125 12ZM11.0625 7.27344L15.4375 11.3359C15.6328 11.4922 15.75 11.7656 15.75 12C15.75 12.2734 15.6328 12.5078 15.4375 12.7031L11.0625 16.7656C10.6719 17.1172 10.0859 17.1172 9.73438 16.7266C9.38281 16.3359 9.38281 15.75 9.77344 15.3984L12.3906 12.9375H2.9375C2.39062 12.9375 2 12.5469 2 12C2 11.4922 2.39062 11.0625 2.9375 11.0625H12.3906L9.77344 8.64062C9.42188 8.28906 9.38281 7.70312 9.73438 7.3125C10.0859 6.92188 10.6719 6.92188 11.0625 7.27344Z"/>
</svg>

<svg xmlns="http://www.w3.org/2000/svg" width="24" height="24" fill="currentColor" class="icon-arrow-right-to-arc-outline" viewBox="0 0 24 24">
  <path d="M20.125 12c0-4.453-3.672-8.125-8.125-8.125-.547 0-.937-.39-.937-.937 0-.508.39-.938.937-.938 5.508 0 10 4.492 10 10 0 5.547-4.492 10-10 10-.547 0-.937-.39-.937-.937 0-.508.39-.938.937-.938 4.453 0 8.125-3.633 8.125-8.125m-9.062-4.727 4.374 4.063c.196.156.313.43.313.664a.98.98 0 0 1-.312.703l-4.376 4.063c-.39.351-.976.351-1.328-.04-.351-.39-.351-.976.04-1.328l2.617-2.46H2.938C2.39 12.938 2 12.547 2 12c0-.508.39-.937.938-.937h9.453L9.773 8.64a.97.97 0 0 1-.039-1.328c.352-.391.938-.391 1.329-.04"/>
</svg>
